X:089 
T:John Flynn's Jig* 
B:CRE4.005 (gan ainm)
S:Grier MS
F:file ID: cre.4/089john_f
B:CRE4.005: gan ainm, no repeats
L:1/8
Q:160
M:6/8
R:jig
K:G
G2G G2A|BAG Bcd|GGG GGG|EAG FED|
G2G G2A|BAG Bcd|efg dcB|ABG FED :|
|:Bcd dBd|dBd dcB|cde ece|ece edc|
Bcd dBd|dBd def|gfe dcB|ABG FED :|


